style-guide/assets/wds-icons-book-small.svg

<svg xmlns="http://www.w3.org/2000/svg" xmlns:xlink="http://www.w3.org/1999/xlink" width="18" height="18" viewBox="0 0 18 18">
  <defs>
    <path id="book-a" d="M13,1 C15.7622847,1 18,3.23771525 18,6 L18,16 L16,16 C16,14.3422847 14.6577153,13 13,13 C12.1987915,13 11.4417873,13.320195 10.8819664,13.8722135 C10.320195,14.4417873 10,15.1987915 10,16 L8,16 L8,6 C8,4.66509736 8.53249073,3.4061841 9.46778652,2.45803355 C10.4061841,1.53249073 11.6650974,1 13,1 Z M18,16 C18,17.3333333 16,17.3333333 16,16 L16,11.9991021 C17.2145896,12.9111298 18,14.3635062 18,16 Z M16,6 C16,4.34228475 14.6577153,3 13,3 C12.1987915,3 11.4417873,3.32019499 10.8819664,3.87221348 C10.320195,4.44178732 10,5.19879153 10,6 L10,12.0004289 C10.8584069,11.3592309 11.9035713,11 13,11 C14.1257909,11 15.1644491,11.3716922 16,11.9991021 L16,6 Z M10,16 C10,17.3333333 8,17.3333333 8,16 C8,14.6650974 8.53249073,13.4061841 9.46778652,12.4580336 C9.63542675,12.2926898 9.81329595,12.1398899 10,12.0004289 L10,16 Z M8,6 C8,4.34228475 6.65771525,3 5,3 C4.19879153,3 3.44178732,3.32019499 2.88196645,3.87221348 C2.32019499,4.44178732 2,5.19879153 2,6 L2,12.0004289 C2.85840687,11.3592309 3.90357132,11 5,11 C6.12579093,11 7.16444908,11.3716922 8,11.9991021 L8,6 Z M10,6 L10,16 C10,17.3333333 8,17.3333333 8,16 C8,14.3422847 6.65771525,13 5,13 C4.19879153,13 3.44178732,13.320195 2.88196645,13.8722135 C2.32019499,14.4417873 2,15.1987915 2,16 C2,17.3333333 0,17.3333333 0,16 L0,6 C0,4.66509736 0.532490726,3.4061841 1.46778652,2.45803355 C2.4061841,1.53249073 3.66509736,1 5,1 C7.76228475,1 10,3.23771525 10,6 Z"/>
  </defs>
  <use xlink:href="#book-a"/>
</svg>

<svg xmlns="http://www.w3.org/2000/svg" xmlns:xlink="http://www.w3.org/1999/xlink" viewBox="0 0 18 18">
  <defs>
    <path id="book-a" d="M13 1c2.762 0 5 2.238 5 5v10h-2c0-1.658-1.342-3-3-3-.801 0-1.558.32-2.118.872A3.024 3.024 0 0 0 10 16H8V6c0-1.335.532-2.594 1.468-3.542A5.023 5.023 0 0 1 13 1zm5 15c0 1.333-2 1.333-2 0v-4c1.215.911 2 2.364 2 4zM16 6c0-1.658-1.342-3-3-3-.801 0-1.558.32-2.118.872A3.024 3.024 0 0 0 10 6v6a5.005 5.005 0 0 1 6 0V6zm-6 10c0 1.333-2 1.333-2 0 0-1.335.532-2.594 1.468-3.542.167-.165.345-.318.532-.458v4zM8 6c0-1.658-1.342-3-3-3-.801 0-1.558.32-2.118.872A3.024 3.024 0 0 0 2 6v6a5.005 5.005 0 0 1 6 0V6zm2 0v10c0 1.333-2 1.333-2 0 0-1.658-1.342-3-3-3-.801 0-1.558.32-2.118.872A3.024 3.024 0 0 0 2 16c0 1.333-2 1.333-2 0V6c0-1.335.532-2.594 1.468-3.542A5.023 5.023 0 0 1 5 1c2.762 0 5 2.238 5 5z"/>
  </defs>
  <use xlink:href="#book-a"/>
</svg>
